build/img/location.svg

<svg width="25" height="25" viewBox="0 0 25 25" fill="none" xmlns="http://www.w3.org/2000/svg">
<path d="M12.4826 0C7.43046 0 3.32031 4.11015 3.32031 9.16233C3.32031 11.4832 4.78268 14.7623 7.66697 18.9087C9.77516 21.9397 11.8486 24.2851 11.936 24.3835L12.4826 25L13.0295 24.3835C13.1166 24.2851 15.1901 21.9397 17.2985 18.9087C20.1826 14.7623 21.6452 11.4832 21.6452 9.16233C21.6452 4.11015 17.5348 0 12.4826 0ZM16.1066 18.0622C14.6816 20.1122 13.2414 21.8765 12.4826 22.7766C11.7258 21.879 10.2909 20.1214 8.86688 18.074C6.1945 14.2323 4.78191 11.1506 4.78191 9.16233C4.78191 4.91619 8.2365 1.4616 12.4826 1.4616C16.729 1.4616 20.1834 4.91619 20.1834 9.16233C20.1834 11.1485 18.7737 14.226 16.1066 18.0622Z" fill="#C8A35F"/>
<path d="M12.4826 3.38623C9.50089 3.38623 7.07512 5.812 7.07512 8.79375C7.07512 11.7755 9.50089 14.2015 12.4826 14.2015C15.4646 14.2015 17.8904 11.7755 17.8904 8.79375C17.8904 5.812 15.4646 3.38623 12.4826 3.38623ZM12.4826 12.7399C10.3069 12.7399 8.53672 10.9697 8.53672 8.79375C8.53672 6.61804 10.3069 4.84783 12.4826 4.84783C14.6585 4.84783 16.4288 6.61804 16.4288 8.79375C16.4288 10.9697 14.6585 12.7399 12.4826 12.7399Z" fill="#C8A35F"/>
</svg>

<svg width="25" height="25" fill="none" xmlns="http://www.w3.org/2000/svg"><path d="M12.483 0C7.43 0 3.32 4.11 3.32 9.162c0 2.321 1.463 5.6 4.347 9.747a65.361 65.361 0 004.269 5.475l.547.616.546-.616a65.488 65.488 0 004.27-5.475c2.884-4.147 4.346-7.426 4.346-9.747C21.645 4.11 17.535 0 12.483 0zm3.624 18.062a66.424 66.424 0 01-3.624 4.715 66.373 66.373 0 01-3.616-4.703c-2.673-3.842-4.085-6.923-4.085-8.912 0-4.246 3.454-7.7 7.7-7.7 4.247 0 7.701 3.454 7.701 7.7 0 1.986-1.41 5.064-4.076 8.9z" fill="#C8A35F"/><path d="M12.483 3.386a5.414 5.414 0 00-5.408 5.408 5.414 5.414 0 005.408 5.407 5.414 5.414 0 005.407-5.407 5.414 5.414 0 00-5.407-5.408zm0 9.354a3.95 3.95 0 01-3.946-3.946 3.95 3.95 0 013.946-3.946 3.95 3.95 0 013.946 3.946 3.95 3.95 0 01-3.946 3.946z" fill="#C8A35F"/></svg>
